!!!COM: Music21
!!!OTL: A Regueifa
!!!OMV: pezas_jotas_a-regueifa_a-regueifa-partitura.musicxml
**kern
*part1
*staff1
*I"Bagpipes
*I'Bag
*clefG^2
*k[]
*M3/4
=1
!LO:TX:a:t=Prestissimo
*MM225
!LO:TX:a:t=[quarter]=225
4r
8eeL
8ggJ
8eeL
8ggJ
=||
4ee
8eeL
8ggJ
8eeL
8ggJ
=
4ee
8eeL
8ggJ
8eeL
8ggJ
=
4ee
8aaL
8ggJ
8ffL
8eeJ
=
4ff
8ffL
8aaJ
8ffL
8aaJ
=
4ff
8ffL
8aaJ
8ffL
8aaJ
!!linebreak:original
=
4ff
8ffL
8aaJ
8ffL
8aaJ
!!linebreak:original
=
4ff
8bbL
8aaJ
8ggL
8ffJ
=
4gg
8eeL
8ggJ
8eeL
8ggJ
=
4ff
8ggL
8ffJ
8eeL
8ddJ
=||
4ee
8eeL
8ggJ
8eeL
8ggJ
=
4ee
8eeL
8ggJ
8eeL
8ggJ
=
4ee
8aaL
8ggJ
8ffL
8eeJ
=
4ff
8ffL
8aaJ
8ffL
8aaJ
!!linebreak:original
=
4ff
8ffL
8aaJ
8ffL
8aaJ
=
4ff
8ffL
8aaJ
8ffL
8aaJ
!!linebreak:original
=
4ff
8bbL
8aaJ
8ggL
8ffJ
=
2cc
4gg
=
[2.cc
=
8cc]
8r
4ee
4ff
=||
2gg
4gg
=
2gg
4gg
=
4.gg
8ff
[4ee
!!pagebreak:original
=
4ee]
4ff
4gg
=
2aa
4aa
=
2aa
4aa
=
4.aa
8gg
[4ff
=
4ff]
4gg
4aa
=||
2gg
4gg
=
2gg
4gg
=
4.gg
8ff
[4ee
!!linebreak:original
=
4ee]
4ff
4gg
=
2aa
4aa
=
2aa
4aa
=
4.aa
8gg
[4ff
=
4ff]
4gg
4aa
=||
2gg
4gg
=
2gg
4gg
=
4.gg
8ff
[4ee
=
4ee]
4ff
4gg
=
2aa
4aa
=
2aa
4aa
!!linebreak:original
=
4.aa
8gg
[4ff
=
4ff]
4gg
4aa
=
2gg
4gg
=
2gg
4gg
=
4.gg
8ff
[4ee
=
2.ee_
=
8ee]
8r
8eeL
8ggJ
8eeL
8ggJ
==
*-
!!!system-decoration: s1,s2
